X:1
T: The Kissing Ring
C:
R:Jig
Q:180
K:C
M:6/8
L:1/16
|:G4G2 G4B2|d4d2 g4e2|d4B2 B2A2G2|A4F2D6|
G4G2 G4B2|d4d2g4e2|d4B2 B2A2G2|A2G2F2G6|
A4A2d4d2|e4e2f4f2|g4g2f4f2|e2d2e2d6|
A2B2A2 d4d2|e4e2f4f2|a4g2f4f2|e2d2e2d6:|
